24x24/apps/quake3.svg

<svg xmlns="http://www.w3.org/2000/svg" width="24" height="24" version="1.1">
 <circle style="opacity:0.2" cx="12" cy="12.5" r="10"/>
 <circle style="fill:#4f4f4f" cx="12" cy="12" r="10"/>
 <path style="opacity:0.1;fill:#f4f4f7" d="M 12,2 A 10,10 0 0 0 2,12 10,10 0 0 0 2.0107422,12.291016 10,10 0 0 1 12,2.5 10,10 0 0 1 21.989258,12.208985 10,10 0 0 0 22,12 10,10 0 0 0 12,2 Z"/>
 <path style="opacity:0.2" d="m 12,4.5 -1,8 1,8 1,-8 z M 6.7929688,8.4082031 5.828125,8.671875 C 5.0371565,8.8884305 4.4183896,9.133184 3.9179688,9.4765625 3.4175479,9.819941 2.9288705,10.409002 3.0097656,11.148438 c 0.080895,0.739435 0.5966899,1.17712 1.1289063,1.488281 0.5322161,0.31116 1.1919607,0.544971 2.0195312,0.748047 0.803497,0.197169 1.7072189,0.339828 2.6542969,0.441406 L 10,20.5 V 11.933594 C 6.754869,11.72409 4.5058436,11.035645 4.5,10.25 4.5040502,9.7593934 5.3905163,9.2917134 6.9433594,8.9609375 Z m 10.5175782,0.019531 -0.15625,0.5527344 C 18.649794,9.3105918 19.497972,9.7696391 19.5,10.25 19.4979,11.03637 17.248121,11.725848 14,11.935547 V 20.5 l 1.1875,-6.671875 c 0.90432,-0.09783 1.770078,-0.233894 2.546875,-0.417969 0.838981,-0.198809 1.510085,-0.427925 2.052734,-0.730468 0.54265,-0.302543 1.05935,-0.702138 1.189453,-1.427735 C 21.106668,10.526357 20.640848,9.879162 20.150391,9.5234375 19.659934,9.167713 19.052492,8.9220879 18.273438,8.7011719 Z"/>
 <path style="fill:#d95656" d="m 12,4 -1,8 1,8 1,-8 z M 6.7929688,7.9082031 5.828125,8.171875 C 5.0371565,8.3884305 4.4183896,8.633184 3.9179688,8.9765625 3.4175479,9.319941 2.9288705,9.9090025 3.0097656,10.648438 c 0.080895,0.739435 0.5966899,1.17712 1.1289063,1.488281 0.5322161,0.31116 1.1919607,0.544971 2.0195312,0.748047 0.803497,0.197169 1.7072189,0.339828 2.6542969,0.441406 L 10,20 V 11.433594 C 6.754869,11.22409 4.5058436,10.535645 4.5,9.75 4.5040502,9.2593934 5.3905163,8.7917134 6.9433594,8.4609375 Z m 10.5175782,0.019531 -0.15625,0.5527344 C 18.649794,8.8105918 19.497972,9.2696391 19.5,9.75 19.4979,10.53637 17.248121,11.225848 14,11.435547 V 20 l 1.1875,-6.671875 c 0.90432,-0.09783 1.770078,-0.233894 2.546875,-0.417969 0.838981,-0.198809 1.510085,-0.427925 2.052734,-0.730468 0.54265,-0.302543 1.05935,-0.702138 1.189453,-1.427735 C 21.106668,10.026357 20.640848,9.379162 20.150391,9.0234375 19.659934,8.667713 19.052492,8.4220879 18.273438,8.2011719 Z"/>
 <path style="opacity:0.1;fill:#f4f4f7" d="m 12,4 -0.765625,6 h 0.06055 L 12,4.5 12.705078,10 h 0.06055 z M 6.7929688,7.9082031 5.828125,8.171875 C 5.0371565,8.3884305 4.4183896,8.633184 3.9179688,8.9765625 3.4175479,9.319941 2.9288705,9.9090025 3.0097656,10.648438 c 0.00356,0.03252 0.010416,0.06239 0.015625,0.09375 C 3.1201624,10.193777 3.5116979,9.753997 3.9160156,9.4765625 4.4164364,9.133184 5.0371565,8.8884305 5.828125,8.671875 l 0.9648438,-0.2636719 0.021484,0.080078 c 0.042514,-0.00923 0.085485,-0.018346 0.1289063,-0.027344 z m 10.5175782,0.019531 -0.15625,0.5527344 c 0.04488,0.010933 0.08916,0.022002 0.132812,0.033203 l 0.02344,-0.085937 0.962891,0.2734375 c 0.779054,0.220916 1.386496,0.4665411 1.876953,0.8222656 0.375466,0.272322 0.734207,0.7160115 0.824218,1.2343745 3.84e-4,-0.0021 0.0016,-0.0037 0.002,-0.0059 C 21.106623,10.026396 20.640848,9.379162 20.150391,9.0234375 19.659934,8.667713 19.052492,8.4220879 18.273438,8.2011719 Z m 2.103515,2.0703125 C 18.985358,10.68392 16.862172,11.24612 14,11.431641 v 0.501953 c 3.245131,-0.209504 5.494156,-0.897949 5.5,-1.683594 -0.0026,-0.08436 -0.0313,-0.168562 -0.08594,-0.2519531 z M 4.5859375,10.001953 C 4.5321009,10.084055 4.5033825,10.166947 4.5,10.25 c 0.00209,0.78637 2.2518788,1.475848 5.5,1.685547 V 11.433594 C 7.1403054,11.248361 5.017702,10.687081 4.5859375,10.001953 Z"/>
</svg>

<svg xmlns="http://www.w3.org/2000/svg" width="24" height="24"><circle style="opacity:.2" cx="12" cy="12.5" r="10"/><circle style="fill:#4f4f4f" cx="12" cy="12" r="10"/><path style="opacity:.1;fill:#f4f4f7" d="M12 2A10 10 0 0 0 2 12a10 10 0 0 0 .01.291A10 10 0 0 1 12 2.5a10 10 0 0 1 9.99 9.709A10 10 0 0 0 22 12 10 10 0 0 0 12 2z"/><path style="opacity:.2" d="m12 4.5-1 8 1 8 1-8zM6.793 8.408l-.965.264c-.79.216-1.41.461-1.91.805-.5.343-.99.932-.908 1.671.08.74.596 1.178 1.129 1.489.532.31 1.192.545 2.02.748.803.197 1.706.34 2.653.441L10 20.5v-8.566c-3.245-.21-5.494-.898-5.5-1.684.004-.49.89-.958 2.443-1.29zm10.518.02-.157.552c1.496.33 2.344.79 2.346 1.27-.002.786-2.252 1.476-5.5 1.686V20.5l1.188-6.672c.904-.098 1.77-.234 2.546-.418.84-.199 1.51-.428 2.053-.73.543-.303 1.06-.702 1.19-1.428.13-.726-.336-1.373-.827-1.729-.49-.355-1.098-.6-1.877-.822z"/><path style="fill:#d95656" d="m12 4-1 8 1 8 1-8zM6.793 7.908l-.965.264c-.79.216-1.41.461-1.91.805-.5.343-.99.932-.908 1.671.08.74.596 1.178 1.129 1.489.532.31 1.192.545 2.02.748.803.197 1.706.34 2.653.441L10 20v-8.566c-3.245-.21-5.494-.898-5.5-1.684.004-.49.89-.958 2.443-1.29zm10.518.02-.157.552c1.496.33 2.344.79 2.346 1.27-.002.786-2.252 1.476-5.5 1.686V20l1.188-6.672c.904-.098 1.77-.234 2.546-.418.84-.199 1.51-.428 2.053-.73.543-.303 1.06-.702 1.19-1.428.13-.726-.336-1.373-.827-1.729-.49-.355-1.098-.6-1.877-.822z"/><path style="opacity:.1;fill:#f4f4f7" d="m12 4-.766 6h.06L12 4.5l.705 5.5h.06zM6.793 7.908l-.965.264c-.79.216-1.41.461-1.91.805-.5.343-.99.932-.908 1.671.003.033.01.063.015.094.095-.548.487-.988.891-1.265.5-.344 1.121-.589 1.912-.805l.965-.264.021.08.13-.027zm10.518.02-.157.552.133.034.024-.086.962.273c.78.221 1.387.467 1.877.822.376.273.735.716.825 1.235l.002-.006c.13-.726-.336-1.373-.827-1.729-.49-.355-1.098-.6-1.877-.822zm2.103 2.07c-.429.686-2.552 1.248-5.414 1.434v.502c3.245-.21 5.494-.898 5.5-1.684a.485.485 0 0 0-.086-.252zm-14.828.004a.487.487 0 0 0-.086.248c.002.786 2.252 1.476 5.5 1.686v-.502c-2.86-.186-4.982-.747-5.414-1.432z"/></svg>
